X:37
T:Ye'll ay be welcome back again
R:strathspey
C:traditional
O:18th century Scottish
B:Bremner's Collections, 1757
N:1555 11H52 (1555 1152)
Z:Paul Stewart Cranford (P.S.C.), <http://www.cranfordpub.com>
L:1/8
M:C|
K:D
F|D/D/D A>B AFAB|D/D/D dB AFEF|D/D/D A>B ABde|fdef d/d/d d:|
|:e|Tf>edf g>fef|A/A/A eA Tc>Aeg|Tf>edf g>fef|A/A/A (Tf>e) (d2 d):|

